X:21
T:The Bunch of Rushes
B:Kennedy, 1954, Fiddlers Tune Book, Vol. 2, pg.6;
B:Raven, 1984, English Country Dance Tunes, pg.161.
N:This one came from Dave East, who plays in the
N:Kilkenny Tavern session if he can avoid the lure
N:of St Boniface Social Club on the way there.
N:An English slow hornpipe unrelated either to the
N:Irish reel 'Bunch of Green Rushes' or the air
N:'An Beinsín Lúachra'. Played at slow air tempo.
Z:ATB
R:air
M:4/4
L:1/8
K:Dmix
de|f2ef gfed|dedc AGAB|cBcd edBA|B2A2 A2de|
f2ef gfed|dedc AGAB|cBcd edAG|E2D2 D2|]
|:GA|[G4B4d4] [A4c4e4]|[A2c2]AG A2AB|
cBcd edBA|B2A2 A2de|f2ef gfed|dedc AGAB|
cBcd edAG|[E2G2][D2F2][D2F2]|]
